X:22
T:New Century. Pn1801.22
Q:1/4=90
M:2/4
L:1/8
C:"462"
W:The page of this tune is missing part of the right hand edge and the last half of bar 4 is missing.
W:B2 is inferred
W:Set and change sides .| back again :| lead down the middle, up again & cast off :||: right and left at top :||
B:Preston 24 for 1801
Z:Village Music Project, John Adams, 2017
K:Bb
B/A/B/A/ B/A/G/F/|G/F/G/A/ B/d/f|B/A/B/A/ B/A/G/F/|G/e/c/A/ B2:|
|:fd/f/ e/d/e/c/|d/c/d/B/ c/A/F|fd/f/ e/d/e/c/|d/B/c/A/c2:|
|:dd/d/ d/d/d/d/|ecdb|dd/d/ d/d/d/d/|ecB2:|
